icon-themes/sifr_svg/cmd/lc_insertpagebreak.svg

<svg viewBox="0 0 24 24" xmlns="http://www.w3.org/2000/svg"><path d="m3 1v8h17v-8h-2v6h-13v-6zm-2 10v2h4v-2zm6 0v2h4v-2zm6 0v2h4v-2zm6 0v2h4v-2zm-16 4v8h2v-6h8v5h5v1h2v-2l-6-6z" fill="#555753"/></svg>

<svg xmlns="http://www.w3.org/2000/svg" viewBox="0 0 24 24">
  <path
     style="fill:#555753"
     d="M 3 1 L 3 9 L 20 9 L 20 1 L 18 1 L 18 7 L 5 7 L 5 1 L 3 1 z M 1 11 L 1 13 L 5 13 L 5 11 L 1 11 z M 7 11 L 7 13 L 11 13 L 11 11 L 7 11 z M 13 11 L 13 13 L 17 13 L 17 11 L 13 11 z M 19 11 L 19 13 L 23 13 L 23 11 L 19 11 z M 3 15 L 3 23 L 5 23 L 5 17 L 13 17 L 13 22 L 18 22 L 18 23 L 20 23 L 20 21 L 14 15 L 3 15 z "
     />
</svg>
